Flat-Remix-Blue/mimetypes/scalable/application-x-php.svg

<svg xmlns="http://www.w3.org/2000/svg" xmlns:xlink="http://www.w3.org/1999/xlink" width="36pt" height="36pt" version="1.1" viewBox="0 0 36 36"> <defs> <clipPath id="clip1"> <path d="M 20 2 L 31 2 L 31 13 L 20 13 Z M 20 2"/> </clipPath> <clipPath id="clip2"> <path d="M 20.515625 2.625 L 30.328125 12.4375 L 22.023438 12.4375 C 21.292969 12.4375 20.515625 11.660156 20.515625 10.929688 Z M 20.515625 2.625"/> </clipPath> <image id="image6" width="36" height="36" xlink:href="data:image/png;base64,iVBORw0KGgoAAAANSUhEUgAAACQAAAAkCAYAAADhAJiYAAAABmJLR0QA/wD/AP+gvaeTAAAAmklEQVRYhe3T0QqCQBBG4aOtYEoUvf9Lildltl00C4tkbBeTIP+BAUEYP1YW1Pcqh53B9kbgaVPcwQF0tAmGSrMZ6AKcDQXw+AUVHEAtcAUaewYYgYmC3+cBCkAPnDJQMcoDVNnebgEqQnmAclTz4d0I3P4JStc9AjXvk4qLWQV53LLeEOl05gw4A3dgcPiuUkoppZRSSqk99gLWvSJpuDnlsAAAAABJRU5ErkJggg=="/> </defs> <g> <path style="fill:rgb(54.901%,25.882%,67.058%)" d="M 7.347656 3.152344 C 6.675781 3.152344 6.042969 3.785156 6.042969 4.457031 L 6.042969 31.847656 C 6.042969 32.480469 6.714844 33.152344 7.347656 33.152344 L 28.21875 33.152344 C 28.851562 33.152344 29.523438 32.480469 29.523438 31.847656 L 29.523438 11.632812 L 21.042969 3.152344 Z M 7.347656 3.152344"/> <g clip-path="url(#clip1)"> <g clip-path="url(#clip2)"> <use xlink:href="#image6"/> </g> </g> <path style="fill:rgb(68.235%,47.843%,76.862%)" d="M 21.042969 3.152344 L 29.523438 11.632812 L 22.347656 11.632812 C 21.714844 11.632812 21.042969 10.960938 21.042969 10.328125 Z M 21.042969 3.152344"/> <path style="fill-rule:evenodd;fill:rgb(100.000%,100.000%,100.000%)" d="M 25.824219 19.957031 C 25.824219 22.839844 22.320312 25.175781 18 25.175781 C 13.679688 25.175781 10.175781 22.839844 10.175781 19.957031 C 10.175781 17.074219 13.679688 14.738281 18 14.738281 C 22.320312 14.738281 25.824219 17.074219 25.824219 19.957031 Z M 25.824219 19.957031"/> <path style="fill:rgb(54.901%,25.882%,67.058%)" d="M 15.804688 18.023438 C 16.136719 18.023438 16.398438 18.136719 16.59375 18.367188 C 16.785156 18.59375 16.882812 18.914062 16.882812 19.324219 C 16.882812 19.730469 16.804688 20.121094 16.648438 20.496094 C 16.492188 20.867188 16.277344 21.164062 16.003906 21.386719 C 15.734375 21.605469 15.433594 21.714844 15.109375 21.714844 C 14.917969 21.714844 14.753906 21.675781 14.617188 21.597656 C 14.480469 21.519531 14.351562 21.382812 14.238281 21.195312 L 14.210938 21.195312 C 14.183594 21.53125 14.132812 21.847656 14.0625 22.136719 L 13.816406 23.21875 L 12.78125 23.21875 L 13.957031 18.089844 L 14.742188 18.089844 L 14.6875 18.632812 L 14.714844 18.632812 C 15.03125 18.226562 15.394531 18.023438 15.804688 18.023438 M 15.386719 18.800781 C 15.234375 18.800781 15.082031 18.871094 14.9375 19.015625 C 14.792969 19.160156 14.675781 19.351562 14.585938 19.589844 C 14.5 19.828125 14.457031 20.089844 14.457031 20.378906 C 14.457031 20.550781 14.5 20.683594 14.582031 20.789062 C 14.667969 20.890625 14.785156 20.941406 14.933594 20.941406 C 15.085938 20.941406 15.230469 20.867188 15.371094 20.71875 C 15.511719 20.574219 15.621094 20.375 15.707031 20.117188 C 15.792969 19.863281 15.835938 19.609375 15.835938 19.359375 C 15.835938 18.988281 15.6875 18.800781 15.386719 18.800781"/> <path style="fill:rgb(54.901%,25.882%,67.058%)" d="M 19.503906 21.652344 L 18.472656 21.652344 L 18.941406 19.570312 C 18.980469 19.425781 18.996094 19.300781 18.996094 19.191406 C 18.996094 18.929688 18.875 18.800781 18.628906 18.800781 C 18.417969 18.800781 18.226562 18.921875 18.054688 19.164062 C 17.882812 19.40625 17.75 19.742188 17.648438 20.175781 L 17.3125 21.652344 L 16.28125 21.652344 L 17.414062 16.695312 L 18.445312 16.695312 C 18.355469 17.078125 18.289062 17.375 18.238281 17.582031 C 18.191406 17.785156 18.09375 18.113281 17.945312 18.566406 L 17.972656 18.566406 C 18.113281 18.402344 18.273438 18.269531 18.445312 18.171875 C 18.621094 18.074219 18.820312 18.023438 19.050781 18.023438 C 19.363281 18.023438 19.609375 18.113281 19.78125 18.292969 C 19.953125 18.46875 20.039062 18.71875 20.039062 19.050781 C 20.039062 19.203125 20.015625 19.394531 19.960938 19.621094 L 19.503906 21.652344"/> <path style="fill:rgb(54.901%,25.882%,67.058%)" d="M 22.136719 18.023438 C 22.472656 18.023438 22.734375 18.136719 22.925781 18.367188 C 23.121094 18.59375 23.21875 18.914062 23.21875 19.324219 C 23.21875 19.730469 23.136719 20.121094 22.980469 20.496094 C 22.824219 20.867188 22.613281 21.164062 22.339844 21.386719 C 22.066406 21.605469 21.769531 21.714844 21.441406 21.714844 C 21.25 21.714844 21.089844 21.675781 20.949219 21.597656 C 20.8125 21.519531 20.6875 21.382812 20.570312 21.195312 L 20.542969 21.195312 C 20.515625 21.53125 20.464844 21.847656 20.394531 22.132812 L 20.148438 23.21875 L 19.117188 23.21875 L 20.289062 18.089844 L 21.078125 18.089844 L 21.019531 18.632812 L 21.050781 18.632812 C 21.367188 18.226562 21.730469 18.023438 22.136719 18.023438 M 21.722656 18.800781 C 21.566406 18.800781 21.417969 18.871094 21.269531 19.015625 C 21.125 19.160156 21.007812 19.351562 20.921875 19.589844 C 20.832031 19.828125 20.789062 20.089844 20.789062 20.378906 C 20.789062 20.550781 20.832031 20.6875 20.917969 20.789062 C 21 20.890625 21.117188 20.941406 21.265625 20.941406 C 21.421875 20.941406 21.566406 20.867188 21.707031 20.71875 C 21.84375 20.574219 21.957031 20.375 22.042969 20.117188 C 22.128906 19.863281 22.171875 19.609375 22.171875 19.359375 C 22.171875 18.988281 22.023438 18.800781 21.722656 18.800781"/> </g> </svg>

<svg width="36pt" height="36pt" version="1.1" viewBox="0 0 36 36" xmlns="http://www.w3.org/2000/svg"><defs><filter id="a" x="-.192" y="-.192" width="1.384" height="1.384" color-interpolation-filters="sRGB"><feGaussianBlur stdDeviation="0.67843748"/></filter></defs><path d="m7.3477 3.1523c-0.67188 0-1.3047 0.63281-1.3047 1.3047v27.391c0 0.63281 0.67188 1.3047 1.3047 1.3047h20.871c0.63281 0 1.3047-0.67188 1.3047-1.3047v-20.215l-8.4805-8.4805z" fill="#8b41aa"/><path d="m20.668 3.5272 8.4805 8.4805h-7.1758c-0.63281 0-1.3047-0.67187-1.3047-1.3047z" filter="url(#a)" opacity=".2"/><path d="m21.043 3.1523 8.4805 8.4805h-7.1758c-0.63281 0-1.3047-0.67187-1.3047-1.3047z" fill="#ad79c3"/><path d="m25.824 19.957c0 2.8828-3.5039 5.2188-7.8242 5.2188s-7.8242-2.3359-7.8242-5.2188c0-2.8828 3.5039-5.2188 7.8242-5.2188s7.8242 2.3359 7.8242 5.2188z" fill="#fff" fill-rule="evenodd"/><path d="m15.805 18.023c0.33203 0 0.59375 0.11328 0.78906 0.34375 0.19141 0.22656 0.28906 0.54687 0.28906 0.95703 0 0.40625-0.078124 0.79688-0.23437 1.1719-0.15625 0.37109-0.37109 0.66797-0.64453 0.89062-0.26953 0.21875-0.57031 0.32812-0.89453 0.32812-0.19141 0-0.35547-0.039063-0.49219-0.11719-0.13672-0.078125-0.26563-0.21484-0.37891-0.40234h-0.027343c-0.027344 0.33594-0.078126 0.65234-0.14844 0.94141l-0.24609 1.082h-1.0352l1.1758-5.1289h0.78516l-0.054688 0.54297h0.027344c0.31641-0.40625 0.67969-0.60937 1.0898-0.60937m-0.41797 0.77734c-0.15234 0-0.30469 0.070313-0.44922 0.21484s-0.26172 0.33594-0.35156 0.57422c-0.085938 0.23828-0.12891 0.5-0.12891 0.78906 0 0.17188 0.042969 0.30469 0.125 0.41016 0.085938 0.10156 0.20312 0.15234 0.35156 0.15234 0.15234 0 0.29688-0.074218 0.4375-0.22266 0.14062-0.14453 0.25-0.34375 0.33594-0.60156 0.085938-0.25391 0.12891-0.50781 0.12891-0.75781 0-0.37109-0.14844-0.55859-0.44922-0.55859" fill="#8b41aa"/><path d="m19.504 21.652h-1.0312l0.46875-2.082c0.039063-0.14453 0.054688-0.26953 0.054688-0.37891 0-0.26172-0.12109-0.39062-0.36719-0.39062-0.21094 0-0.40234 0.12109-0.57422 0.36328-0.17188 0.24219-0.30469 0.57813-0.40625 1.0117l-0.33594 1.4766h-1.0312l1.1328-4.957h1.0312c-0.089843 0.38281-0.15625 0.67969-0.20703 0.88672-0.046875 0.20312-0.14453 0.53125-0.29297 0.98438h0.027344c0.14062-0.16406 0.30078-0.29688 0.47266-0.39453 0.17578-0.097656 0.375-0.14844 0.60547-0.14844 0.3125 0 0.55859 0.089843 0.73047 0.26953 0.17188 0.17578 0.25781 0.42578 0.25781 0.75781 0 0.15234-0.023437 0.34375-0.078124 0.57031l-0.45703 2.0312" fill="#8b41aa"/><path d="m22.137 18.023c0.33594 0 0.59766 0.11328 0.78906 0.34375 0.19531 0.22656 0.29297 0.54687 0.29297 0.95703 0 0.40625-0.082031 0.79688-0.23828 1.1719-0.15625 0.37109-0.36719 0.66797-0.64062 0.89062-0.27344 0.21875-0.57031 0.32812-0.89844 0.32812-0.19141 0-0.35156-0.039063-0.49219-0.11719-0.13672-0.078125-0.26172-0.21484-0.37891-0.40234h-0.027343c-0.027344 0.33594-0.078125 0.65234-0.14844 0.9375l-0.24609 1.0859h-1.0312l1.1719-5.1289h0.78906l-0.058594 0.54297h0.03125c0.31641-0.40625 0.67969-0.60937 1.0859-0.60937m-0.41406 0.77734c-0.15625 0-0.30469 0.070313-0.45312 0.21484-0.14453 0.14453-0.26172 0.33594-0.34766 0.57422-0.089844 0.23828-0.13281 0.5-0.13281 0.78906 0 0.17188 0.042969 0.30859 0.12891 0.41016 0.082031 0.10156 0.19922 0.15234 0.34766 0.15234 0.15625 0 0.30078-0.074218 0.44141-0.22266 0.13672-0.14453 0.25-0.34375 0.33594-0.60156 0.085937-0.25391 0.12891-0.50781 0.12891-0.75781 0-0.37109-0.14844-0.55859-0.44922-0.55859" fill="#8b41aa"/></svg>
